X:11747
T:New London Hornpipe. FK.18
M:4/4
L:1/8
Q:160
C:"MS 42 p.6"
S:Kidson's Hornpipe MS,early 20th C.
R:Hornpipe
O:England
A:Leeds
N:
Z:vmp.John Bagnall
K:G
B2 AB G2 f2 | g2 eg f2 d2 | cdec Bcde | cABG GFED |!
 EDEF G2 G2 | BABc d2 g2 | ecGB cAFA |"*"G2 G2 G2:|:!
 d2 | g2 eg f2 d2 | g2 eg f2 d2 | cdec BcdB | cABG GFED |!
 EDEF G2 G2 | BABc d2 g2 | dBGB cAFA | G2 G2 G2 |]
% * The anacrusis implied is missing.JB |]
